icons/image.svg

<svg width="24" height="24" viewBox="0 0 24 24" fill="none" xmlns="http://www.w3.org/2000/svg">
<path d="M2 8C2 4.68629 4.68629 2 8 2H16C19.3137 2 22 4.68629 22 8V16C22 19.3137 19.3137 22 16 22H8C4.68629 22 2 19.3137 2 16V8Z" stroke="black" stroke-width="2" stroke-linecap="round" stroke-linejoin="round"/>
<path d="M22 9.99002C15.39 9.08202 8.617 15.49 9 22" stroke="black" stroke-width="2" stroke-linecap="round" stroke-linejoin="round"/>
<path d="M2 13.066C4.78 12.681 8.651 14.2411 10 16.3831" stroke="black" stroke-width="2" stroke-linecap="round" stroke-linejoin="round"/>
<path d="M8.5 6C9.58933 6 10.5 6.91067 10.5 8C10.5 9.08933 9.58933 10 8.5 10C7.41067 10 6.5 9.08933 6.5 8C6.5 6.91067 7.41067 6 8.5 6Z" stroke="black" stroke-width="2" stroke-linecap="round" stroke-linejoin="round"/>
</svg>

<svg xmlns="http://www.w3.org/2000/svg" width="24" height="24" viewBox="0 0 24 24" fill="none" stroke="currentColor" stroke-width="2" stroke-linecap="round" stroke-linejoin="round">
<path d="M2 8a6 6 0 0 1 6-6h8a6 6 0 0 1 6 6v8a6 6 0 0 1-6 6H8a6 6 0 0 1-6-6z"/><path d="M22 9.99C15.39 9.082 8.617 15.49 9 22"/><path d="M2 13.066c2.78-.385 6.651 1.175 8 3.317M8.5 6c1.09 0 2 .91 2 2s-.91 2-2 2-2-.91-2-2 .91-2 2-2"/>
</svg>
